X:1
T:Mrs. Menzies of Culdares
T:Mrs. Menzies of Culdares
T:Niel Gow
C:Niel Gow
L:1/8
Q:1/8=128
M:4/4
K:Bb
V:1 treble 
V:1
|: d/c/ | B>F G/F/E/D/ B>F B<d | B3/2d/4c/4 G/F/E/D/ C2 Cd/c/ | B>F G/F/E/D/ F>G Bg | %4
 f<d c<d B2 Bd/c/ | B>F G/F/E/D/ B>F B<d | B3/2d/4c/4 G/F/E/D/ C2 Cd/c/ | B>F G/F/E/D/ F>G Bg | %8
 f<d c<d B2 Bg/a/ | b>f g>b f>d B>d | c>B d>B G2- Gg/a/ | b>f g>b f>d B>d | c>B c>d B2- Bg/a/ | %13
 b>f g>b f>d B>d | c>B e/d/c/B/ G3 B | F>G B>c B>c Bb/g/ | f<d c<d B2- B :| %17

